icons/mail-check.svg

<svg xmlns="http://www.w3.org/2000/svg" viewBox="0 0 24 24" fill="currentColor">
  <path d="M6 5.2124c-1.28579 0-2.25.96422-2.25 2.25v8c0 1.2858.96421 2.25 2.25 2.25h6c.4142 0 .75.3358.75.75s-.3358.75-.75.75H6c-2.11421 0-3.75-1.6358-3.75-3.75v-8c0-2.11421 1.63579-3.75 3.75-3.75h12c2.1142 0 3.75 1.63579 3.75 3.75v5c0 .4142-.3358.75-.75.75s-.75-.3358-.75-.75v-5c0-1.28578-.9642-2.25-2.25-2.25H6Zm-.66792 2.90883c.18838-.3689.64014-.51524 1.00904-.32687l4.69698 2.39844c.5723.2852 1.2289.3029 1.9398-.0081l4.6811-2.39034c.3689-.18837.8206-.04203 1.009.32687.1884.3689.042.82066-.3269 1.00904l-4.7 2.40003c-.012.0061-.0241.0119-.0365.0174-1.0813.4806-2.2176.4966-3.24-.0145l-.0057-.0029h.0001L5.65895 9.13027c-.3689-.18838-.51524-.64014-.32687-1.00904ZM21.5238 15.9992c.2965-.2892.3023-.7641.0131-1.0605-.2893-.2965-.7641-.3024-1.0606-.0131l-3.7197 3.6289L15.6 17.0124c-.2485-.3314-.7186-.3985-1.05-.15-.3313.2485-.3985.7186-.15 1.05l1.532 2.0426.0377.0377c.2225.2225.5065.2947.7303.2947.2224 0 .5042-.0712.726-.2903l4.0978-3.9979Z"/>
</svg>

<svg width="24" height="24" viewBox="0 0 24 24" fill="none" xmlns="http://www.w3.org/2000/svg">
<path fill-rule="evenodd" clip-rule="evenodd" d="M6 5.2124C4.71421 5.2124 3.75 6.17662 3.75 7.4624V15.4624C3.75 16.7482 4.71421 17.7124 6 17.7124H12C12.4142 17.7124 12.75 18.0482 12.75 18.4624C12.75 18.8766 12.4142 19.2124 12 19.2124H6C3.88579 19.2124 2.25 17.5766 2.25 15.4624V7.4624C2.25 5.34819 3.88579 3.7124 6 3.7124H18C20.1142 3.7124 21.75 5.34819 21.75 7.4624V12.4624C21.75 12.8766 21.4142 13.2124 21 13.2124C20.5858 13.2124 20.25 12.8766 20.25 12.4624V7.4624C20.25 6.17662 19.2858 5.2124 18 5.2124H6ZM5.33208 8.12123C5.52046 7.75233 5.97222 7.60599 6.34112 7.79436L11.0381 10.1928C11.6104 10.478 12.267 10.4957 12.9779 10.1847L17.659 7.79436C18.0279 7.60599 18.4796 7.75233 18.668 8.12123C18.8564 8.49013 18.71 8.94189 18.3411 9.13027L13.6411 11.5303C13.6291 11.5364 13.617 11.5422 13.6046 11.5477C12.5233 12.0283 11.387 12.0443 10.3646 11.5332L10.3589 11.5303L10.359 11.5303L5.65895 9.13027C5.29005 8.94189 5.14371 8.49013 5.33208 8.12123ZM21.5238 15.9992C21.8203 15.71 21.8261 15.2351 21.5369 14.9387C21.2476 14.6422 20.7728 14.6363 20.4763 14.9256L16.7566 18.5545L15.6 17.0124C15.3515 16.681 14.8814 16.6139 14.55 16.8624C14.2187 17.1109 14.1515 17.581 14.4 17.9124L15.932 19.955L15.9697 19.9927C16.1922 20.2152 16.4762 20.2874 16.7 20.2874C16.9224 20.2874 17.2042 20.2162 17.426 19.9971L21.5238 15.9992Z" fill="black"/>
</svg>
